X:1
T:Copacabana, 87.87 D
T:Copacabana, 87.87 D
T:C. M. Barnes, 1896
T:Public Domain Courtesy of the Cyber Hymnal™
C:C. M. Barnes, 1896
Z:Public Domain
Z:Courtesy of the Cyber Hymnal™
%%score ( 1 2 ) ( 3 4 )
L:1/8
Q:1/4=96
M:3/4
K:E
V:1 treble 
V:2 treble 
V:3 bass 
V:4 bass 
V:1
 E[EF] | [EG]3 [EF] [EG][FA] | [Ac]2 [GB]2 [GB][GB] | [GB]3 [GB] [EG]E | [DF]4 E[EF] | %5
 [EG]3 [EF] [EG][FA] | [Ac]2 [GB]2 [GB][Ge] | [Fd]3 [Ec] [EB][E^A] | [DB]4 [DF][EG] | %9
 [FA]2 [DF]2 [EG][FA] | [GB]2 !fermata![EG]2 [GB][Ac] | [GB]3 [GB] [EG]E | [DF]4 [EG][FA] | %13
 [GB]3 [Ge] [Bd][Ac] | [Ac]2 [GB]2 E[EF] | [EG]3 [FA] [EG][DF] | E4 |] %17
V:2
 E x | x6 | x6 | x5 E | x4 E x | x6 | x6 | x6 | x6 | x6 | x6 | x5 E | x6 | x6 | x4 E x | x6 | E4 |] %17
V:3
 [E,G,][E,A,] | [E,B,]3 [E,^A,] [E,B,][E,B,] | [E,E]2 [E,E]2 [E,E][E,E] | %3
 [E,E]3 [E,E] [E,B,][E,G,] | [B,,B,]4 [E,G,][E,A,] | [E,B,]3 [E,^A,] [E,B,][E,B,] | %6
 [E,E]2 [E,E]2 [E,E][E,B,] | [F,B,]3 [F,^A,] [F,B,]F, | [B,,F,]4 [B,,B,][B,,B,] | %9
 [B,,B,]2 [B,,B,]2 [E,B,][E,B,] | [E,E]2 !fermata![E,B,]2 [E,E][E,E] | [E,E]3 [E,E] [E,B,][E,G,] | %12
 [B,,B,]4 [E,B,][E,B,] | [E,E]3 [E,E] [E,E][E,E] | [E,E]2 [E,E]2 [E,G,][E,A,] | %15
 [E,B,]3 [A,,C] [B,,B,][B,,A,] | [E,G,]4 |] %17
V:4
 x2 | x6 | x6 | x6 | x6 | x6 | x6 | x5 F, | x6 | x6 | x6 | x6 | x6 | x6 | x6 | x6 | x4 |] %17

